X: 379
T: Bir Haber Ver Ey Sabâ
C: Bîmen Şen
O: Turkey
F: http://compmusic.upf.edu/node/140
N: acemasiran--sarki--agiraksak--bir_haber--bimen_sen
N: makam= acemasiran
N: form= sarki
N: usul= agiraksak = 9/4
M: 9/4
L: 1/16
K: C _B   
Q: 1/4=72
%%MIDI tuningsystem comma53
z2fe .f2.g2 a3g f2e2 g3f e2d2 e2f2 gfed c4  | \
w:   | 
z2{e'}d'2 c'2b2 a2c'2 {c'}b2a2 g2a2 c'bag f8 g2a2  | 
w:   | 
b3a {b}g2b2 a3g f2a2 g3f e2g2 f3e d2f2 e2d2  | \
w:   | 
c3B A2f2 {f}e2d2 c2B2 A3G AGFE F4 c2de f4  | 
w:   | 
z2fe .f2.g2 a3g f2e2 g3f e2d2 e2f2 gfed c4  | \
w:   | 
z2{e'}d'2 c'2b2 a2c'2 {c'}b2a2 g2a2 c'bag f8 g2a2  | 
w:   | 
b3a {b}g2b2 a3g f2a2 g3f e2g2 f3e d2f2 e2d2  | \
w:   | 
c3B A2f2 {f}e2d2 c2B2 A3G AGFE F2fa gfef edcd/e/  | 
w:   | 
f3/2e/fg fede f2e4f2 f8 e2f2 g2a2 g2f2  | \
w:  *  *  *  *  *  *  *  *  *  Bir  ha ber  ver   | 
e3d edc2 z2c4_3/4d2 c2_2/4BA B2c2 B2c2 c2B2 e2dc  | 
w:  *  *  *  *  *  ey  sa bâ *  *  *  *  n'ol  | 
c8-c2.c4g2 g8 f2g2 a2b2 a2g2  | g2f4ed d2{g}a2 g2f2 e2f2 g2gf f6c2 d2e2  | 
w:  *  du  gü lis tâ  |  *  *  *  *  *  *  nım  *  *  *  *  *  be *  nim   SAZ  | 
f4 fede f2f4a2 g2gf e4 f2g2 fed2 e2f2  | \
w:  *  *  *  *  *  *  Kim ler_ i *  *  *  le   | 
edcd c4 z2d4_e2 d2c2 B2A2 {c}d4 d2{=e}dc c3B  | 
w:  *  *  *  *  *  sa lı nır  *  *  *  *  serv_  | 
A3B A^GA4.F4=G2 A2B2 c2d2 f3_e d3c B3A  | \
w:  *  *  *  *  *  i  hı râ *  *  *  mâ  | 
G8 G2A2 G2F2 E2F2 G2GF F6c2 d2e2  | 
w:  *  *  nım  *  *  *  *  *  be *  nim   SAZ  | 
f4 fede f2f4a2 g2gf e4 f2g2 fed2 e2f2  | \
w:  *  *  *  *  *  *  Kim ler_ i *  *  *  le   | 
edcd c4 z2d4_e2 d2c2 B2A2 {c}d4 d2{=e}dc c3B  | 
w:  *  *  *  *  *  sa lı nır  *  *  *  *  serv_  | 
A3B A^GA4.F4=G2 A2B2 c2d2 f3_e d3c B3A  | \
w:  *  *  *  *  *  i  hı râ *  *  *  mâ  | 
G8 G2A2 G2F2 E2F2 G2GF F6g2 f2g2  | 
w:  *  *  nım  *  *  *  *  *  be *  nim   SAZ  | 
a8 z2g4a2 a8 a2_2/4b2 c'2b2 c'2_3/4b2  | \
w:  *  Bül bül_ ü müş  | 
c'2ba a6{a}b4b2 b2a4g2 g2a2 g2f2 e2d2  | 
w:  *  *  *  *  *  tâ kı nın  *  *  ağ  | 
d2ed c_2/4Bc2 c2c4g2 g8 f2g2 a2b2 a2g2  | \
w:  *  *  *  *  *  *  *  la dı ğın  yâr   | 
g2f4ed d2{g}a2 g2f2 e2f2 g2gf f6c2 d2e2  | 
w:  *  *  *  *  *  *  i *  *  *  *  *  şi *  tip   SAZ  | 
f4 fede f2f4a2 g2gf e4 f2g2 fed2 e2f2  | \
w:  *  *  *  *  *  *  Kim ler_ i *  *  *  le   | 
edcd c4 z2d4_e2 d2c2 B2A2 {c}d4 d2{=e}dc c3B  | 
w:  *  *  *  *  *  sa lı nır  *  *  *  *  serv_  | 
A3B A^GA4.F4=G2 A2B2 c2d2 f3_e d3c B3A  | \
w:  *  *  *  *  *  i  hı râ *  *  *  mâ  | 
G8 G2A2 G2F2 E2F2 G2GF F6c2 d2e2  | 
w:  *  *  nım  *  *  *  *  *  be *  nim   SAZ  | 
f4 fede f2f4a2 g2gf e4 f2g2 fed2 e2f2  | \
w:  *  *  *  *  *  *  Kim ler_ i *  *  *  le   | 
edcd c4 z2d4_e2 d2c2 B2A2 {c}d4 d2{=e}dc c3B  | 
w:  *  *  *  *  *  sa lı nır  *  *  *  *  serv_  | 
A3B A^GA4.F4=G2 A2B2 c2d2 f3_e d3c B3A  | \
w:  *  *  *  *  *  i  hı râ *  *  *  mâ  | 
G8 G2A2 G2F2 E2F2 G2GF F6|
w:  *  *  nım  *  *  *  *  *  be *  nim    | 


